X: 26705
T: Mike Flanagan's
R: jig
M: 6/8
K: Dmajor
|:A|DFA DFA|GBc dcB|Add cde|~f3 ecA|
DFA DFA|GBc dcB|Add cde|fdc d2:|
|:e|f2 d dcd|ecA ABc|~d3 dcd|eaa a2 g|
f2 d dcd|ecA ABc|dcA GFG|Adc d2:|

